usr/share/icons/biglinux-icons-material-dark/22/actions/go-jump-definition.svg

<svg xmlns="http://www.w3.org/2000/svg" viewBox="0 0 22 22">
  <defs id="defs3051">
    <style type="text/css" id="current-color-scheme">
      .ColorScheme-Text {
        color:#dedede;
      }
      </style>
  </defs>
 <path 
    style="fill:currentColor;fill-opacity:1;stroke:none" 
    d="M 8 3 L 3 5 L 9 7 L 14 5 L 8 3 z M 3 6 L 3 12 L 8 14 L 8 8 L 3 6 z M 14 6 L 9 8 L 9 14 L 14 12 L 14 6 z M 17 6 L 16 7 L 15 8 L 17 10 L 17 8.7148438 C 17.624415 9.6579186 18 10.778652 18 12 C 18 15.324 15.324 18 12 18 L 12 19 C 15.878 19 19 15.878 19 12 C 19 10.090887 18.232299 8.3761254 17 7.1171875 L 17 6 z "
    class="ColorScheme-Text"
    />  
</svg>

<svg xmlns="http://www.w3.org/2000/svg" viewBox="0 0 22 22">
<defs id="defs3051">
<style id="current-color-scheme" type="text/css">
.ColorScheme-Text{color:#dedede}
</style>
</defs>
<path d="M8 3 3 5l6 2 5-2zM3 6v6l5 2V8zm11 0L9 8v6l5-2zm3 0-1 1-1 1 2 2V8.715A5.9 5.9 0 0 1 18 12c0 3.324-2.676 6-6 6v1c3.878 0 7-3.122 7-7a6.95 6.95 0 0 0-2-4.883z" class="ColorScheme-Text" style="fill:currentColor;fill-opacity:1;stroke:none"/>
</svg>
